X:270
T:The constant Lover.
C:John Malchair's Third Collection of Tunes
F:https://www.vwml.org/record/Malchair/3619/p27
F:www.vwml.org/topics/historic-dance-and-tune-books/Malchair
Z:Eric Conrad Jan 2020
N:NB1 No repeats in MS.  Assuming parts are repeated.
M:C|
L:1/8
K:F
P:A
|: "_NB1"cB | ABcd cBAG | F2F2 F2f2 | e2d2 e2f2 | g4 G4 |
ABcd cBAG | F2F2 F2f2 | g2c2 dfeg | f6 :|
P:B
|: gf | efga gfed | c2c2 c2e2 | f2g2 a2ga | b6 a2 |
gagf efed | cdcB A2c2 | Bdce dfeg | f6 :|


